images/svg/icon-arrow-fat-downd.svg

<svg height="32" viewBox="0 0 50 32" width="50" xmlns="http://www.w3.org/2000/svg"><g fill="none" fill-rule="evenodd" transform="translate(-8 -16)"><path d="m.882439.3151h64v64h-64z"/><path d="m48.4361919 32.2903719c0 .593466-.0906684 1.0962635-.2720052 1.5083925-.1813368.4121291-.4863123.848986-.9149265 1.3105708-6.9567396 6.9402545-15.6526641 15.6155726-20.8702188 20.8207634-.3956439.3956439-.807773.6841342-1.2363873.865471-.4286144.1813368-.9396546.2720052-1.5331206.2720052-.5604954 0-1.0550502-.0906684-1.4836646-.2720052s-.8572286-.4698271-1.2858428-.865471c-.7748028-.7748028-1.7433063-1.7433063-2.3244084-2.3244084-.3956439-.3956439-.6923768-.8489859-.8901988-1.360026-.1978219-.5110401-.2967329-.9973526-.2967329-1.4589374 0-.5604954.0906684-1.0550502.2720052-1.4836646.1813368-.4286143.4863123-.8572286.9149265-1.2858428 5.1268863-5.2422825 11.5354942-11.7951357 15.3806589-15.7268475-3.8328009-3.8080732-11.4984026-11.4242195-15.3312035-15.2322926-.3626736-.3626736-.6429214-.7995305-.8407433-1.3105706-.197822-.5110401-.2967329-.9973523-.2967329-1.4589368 0-.5604957.0906684-1.0550508.2720052-1.4836651.1813368-.4286144.4698271-.8572287.865471-1.2858429.7748028-.9396544 1.7433063-2.11422248 2.3244084-2.81896332.3956439-.3956439.807773-.68413424 1.2363874-.86547104s.9396544-.2720052 1.5331201-.2720052c.593466 0 1.0962636.0906684 1.5083928.2720052s.848986.46982714 1.3105705.86547104c6.9072842 6.97322492 15.5413894 15.68975602 20.7218525 20.91967472.4286142.3956439.7418323.7995304.9396542 1.2116594.197822.4121291.2967329.8984415.2967329 1.4589372z" fill="#000" transform="matrix(0 1 -1 0 65.197539 -.567339)"/></g></svg>

<?xml version="1.0" encoding="UTF-8" standalone="no"?>
<svg width="65px" height="65px" viewBox="0 0 65 65" version="1.1" xmlns="http://www.w3.org/2000/svg" xmlns:xlink="http://www.w3.org/1999/xlink">
    <!-- Generator: Sketch 41 (35326) - http://www.bohemiancoding.com/sketch -->
    <title>icon-arrow-fat-downd</title>
    <desc>Created with Sketch.</desc>
    <defs>
        <rect id="path-1" x="0" y="0" width="64" height="64"></rect>
        <mask id="mask-2" maskContentUnits="userSpaceOnUse" maskUnits="objectBoundingBox" x="0" y="0" width="64" height="64" fill="white">
            <use xlink:href="#path-1"></use>
        </mask>
    </defs>
    <g id="Page-1" stroke="none" stroke-width="1" fill="none" fill-rule="evenodd">
        <g id="rhs-icons" transform="translate(-199.000000, -26.000000)">
            <g id="icon-arrow-fat-downd" transform="translate(199.000000, 26.000000)">
                <g id="Box" transform="translate(0.882439, 0.315100)" stroke="#FF0000" stroke-width="2">
                    <use id="Rectangle-path" mask="url(#mask-2)" xlink:href="#path-1"></use>
                </g>
                <path d="M48.4361919,32.2903719 C48.4361919,32.8838379 48.3455235,33.3866354 48.1641867,33.7987644 C47.9828499,34.2108935 47.6778744,34.6477504 47.2492602,35.1093352 C40.2925206,42.0495897 31.5965961,50.7249078 26.3790414,55.9300986 C25.9833975,56.3257425 25.5712684,56.6142328 25.1426541,56.7955696 C24.7140397,56.9769064 24.2029995,57.0675748 23.6095335,57.0675748 C23.0490381,57.0675748 22.5544833,56.9769064 22.1258689,56.7955696 C21.6972545,56.6142328 21.2686403,56.3257425 20.8400261,55.9300986 C20.0652233,55.1552958 19.0967198,54.1867923 18.5156177,53.6056902 C18.1199738,53.2100463 17.8232409,52.7567043 17.6254189,52.2456642 C17.427597,51.7346241 17.328686,51.2483116 17.328686,50.7867268 C17.328686,50.2262314 17.4193544,49.7316766 17.6006912,49.3030622 C17.782028,48.8744479 18.0870035,48.4458336 18.5156177,48.0172194 C23.642504,42.7749369 30.0511119,36.2220837 33.8962766,32.2903719 C30.0634757,28.4822987 22.397874,20.8661524 18.5650731,17.0580793 C18.2023995,16.6954057 17.9221517,16.2585488 17.7243298,15.7475087 C17.5265078,15.2364686 17.4275969,14.7501564 17.4275969,14.2885719 C17.4275969,13.7280762 17.5182653,13.2335211 17.6996021,12.8049068 C17.8809389,12.3762924 18.1694292,11.9476781 18.5650731,11.5190639 C19.3398759,10.5794095 20.3083794,9.40484142 20.8894815,8.70010058 C21.2851254,8.30445668 21.6972545,8.01596634 22.1258689,7.83462954 C22.5544833,7.65329274 23.0655233,7.56262434 23.658989,7.56262434 C24.252455,7.56262434 24.7552526,7.65329274 25.1673818,7.83462954 C25.579511,8.01596634 26.0163678,8.30445668 26.4779523,8.70010058 C33.3852365,15.6733255 42.0193417,24.3898566 47.1998048,29.6197753 C47.628419,30.0154192 47.9416371,30.4193057 48.139459,30.8314347 C48.337281,31.2435638 48.4361919,31.7298762 48.4361919,32.2903719 L48.4361919,32.2903719 L48.4361919,32.2903719 Z" id="path" fill="#000000" transform="translate(32.882439, 32.315100) rotate(90.000000) translate(-32.882439, -32.315100) "></path>
            </g>
        </g>
    </g>
</svg>
